X:1
T:Title
%%score { 1 | 2 }
L:1/8
M:4/4
K:C
V:1 treble nm="Grand Piano"
V:2 bass 
V:1
 z4 z2[Q:1/4=100] G2 | C>D E>F G2 F>E | [A,F]>[CEG] [CFA]>[CGB] [CAc]2 [CGB]>[CFA] | %3
 [CEG]2 [CE]2 [G,B,D]2 [G,DF]2 |[M:3/4] [G,CE]6 |[M:1/4] G2 |[M:4/4] C>D E>F G2 F>E | %7
 F>G A>[GB] [Ac]2 [GB]>A | G2 c2 e2 d2 |[M:3/4] [Ec]6 |[M:1/4] G2 |[M:4/4] e3 e d3 d | %12
[M:7/8] c3 [GB] A3 |[M:1/8] A |[M:4/4] G2 E2 [B,D]2 [DF]2 |[M:3/4] [DF]2 E2 z2 |[M:1/4] G2 | %17
[M:4/4] e3 e d3 d |[M:7/8] c3 [GB] A3 |[M:1/8] A |[M:4/4] G2 c2 e3 d |[M:3/4] [Fd]2 [Ec]2 z2 |] %22
V:2
 z4 z2 G,2 | C,>D, E,>F, G,2 F,>E, | F,>F, F,>F, F,2 F,>F, | G,2 G,2 G,,2 G,,2 |[M:3/4] C,6 | %5
[M:1/4] G,2 |[M:4/4] C,>D, E,>F, G,2 F,>E, | %7
 [F,A,]>[F,CE] [F,CF]>[F,C] [F,C]2 [F,C]>[K:treble][F,CF] | [G,CE]2 [G,E]2 [G,G]2 [G,F]2 | %9
[M:3/4][K:bass] [C,G,]6 |[M:1/4] G,2 |[M:4/4][K:treble] [CG]3 [CG] [G,B,F]3 [G,B,F] | %12
[M:7/8] [A,CE]3[K:bass] [E,C] [F,CF]3 |[M:1/8] [F,CF] |[M:4/4] [G,CE]2 [G,C]2 [G,,G,]2 [G,,G,]2 | %15
[M:3/4] [C,G,]2 [C,G,C]2 z2 |[M:1/4][K:treble] G,2 |[M:4/4] [CG]3 [CG] [G,B,F]3 [G,B,F] | %18
[M:7/8][K:bass] [A,CE]3 [E,C] [F,CF]3 |[M:1/8] [F,CF] | %20
[M:4/4] [G,CE]2[K:treble] [G,CE]2 [G,CG]3 [G,F] |[M:3/4][K:bass] [C,G,]2 [C,G,]2 z2 |] %22

